X: 183
T: Puncheon Floor
R: reel
M: 4/4
L: 1/8
K: D
fg|: "D"agfa "A"gfeg | "D"fed2 "A"e4| "D"fed2 "A"e2fg | "D"fed2 "A"e2fg |
"D"agfa "A"gfeg | "D"fed2 "A"e4|"D"fedf "A"edce |1"D"dcde "A"fefg :|2"D"dedc "D7"BcBA||
K:G
|:"G"GFGA BABc |d2g2B4|d2g2d2g2 | dg2d2 cBA |
"G"GFGA BABc |d2g2B4|"D"d2g2"C"dBA2 |1"G"G6(3DEF :|2"G"G6|]
